X: 197
T:Mary's Shoes
R:jig
D:Inishkeeragh by Brenda McCann
Z:Alf warnock, alf0@rogers.com - www.alfwarnock.info/alfs
M:6/8
L:1/8
K:F
|: "F"~F3 "Gm"GFD|"F"CFA cag|fdc "Dm"dcA|"F"cAF "Gm"GFD|
"F"~F3 "Gm"GFD|"F"A,CF Acf|"Dm"dcA "F"cAF|[1"C"GFE "F"FDC:|[2 "C"GFE "F"Fde||
|:"F"f3 "Am"edc|"Bb"def "F"cAF|CFA CFA|cAF "Gm"Gcd|
|[1"F"~f3 "Am"edc|"Bb"def "F"cAF|"Gm"~B3 GcB|"C"AFE "F"Fde:|
|[2 "F"~f3 "Gm"~g3|"F"afd cAF|AFD CFA|"C"GFE "F"F3|]
